src/topics/icons/processwire-icon.svg

<svg height="256" preserveAspectRatio="xMidYMid" viewBox="0 0 256 256" width="256" xmlns="http://www.w3.org/2000/svg"><path d="m128.134247 106.805839c11.703986 0 21.193317 9.488486 21.193317 21.194161 0 11.703986-9.489331 21.193317-21.193317 21.193317-11.705675 0-21.194161-9.489331-21.194161-21.193317 0-11.705675 9.488486-21.194161 21.194161-21.194161zm-.134247-106.805839c-70.6587424 0-127.9451191 57.2551368-127.99915568 127.902059h-.00084432v64.853187l32.8407332 29.170467v-95.157578c0-52.5564873 42.6044683-95.1601113 95.1592668-95.1601113 52.554798 0 95.157578 42.603624 95.157578 95.1601113 0 52.551421-42.60278 95.157578-95.157578 95.157578h-17.4116v-46.671566h17.4116c26.77766 0 48.491079-21.707508 48.491079-48.486012 0-26.7818816-21.713419-48.4910788-48.491079-48.4910788-26.778504 0-48.4885456 21.7091972-48.4885456 48.4910788v129.231021h48.4885456c70.691671 0 128-57.306641 128-127.998312 0-70.6925149-57.308329-128.000844-128-128.000844z" fill="#368fb8"/></svg>

<?xml version="1.0" encoding="UTF-8" standalone="no"?>
<svg width="256px" height="256px" viewBox="0 0 256 256" version="1.1" xmlns="http://www.w3.org/2000/svg" xmlns:xlink="http://www.w3.org/1999/xlink" preserveAspectRatio="xMidYMid">
    <g>
        <path d="M128.134247,106.805839 C139.838233,106.805839 149.327564,116.294325 149.327564,128 C149.327564,139.703986 139.838233,149.193317 128.134247,149.193317 C116.428572,149.193317 106.940086,139.703986 106.940086,128 C106.940086,116.294325 116.428572,106.805839 128.134247,106.805839 L128.134247,106.805839 Z M128,0 C57.3412576,0 0.0548809045,57.2551368 0.000844321607,127.902059 L0,127.902059 L0,192.755246 L32.8407332,221.925713 L32.8407332,126.768135 C32.8407332,74.2116477 75.4452015,31.6080237 128,31.6080237 C180.554798,31.6080237 223.157578,74.2116477 223.157578,126.768135 C223.157578,179.319556 180.554798,221.925713 128,221.925713 L110.5884,221.925713 L110.5884,175.254147 L128,175.254147 C154.77766,175.254147 176.491079,153.546639 176.491079,126.768135 C176.491079,99.9862534 154.77766,78.2770562 128,78.2770562 C101.221496,78.2770562 79.5114544,99.9862534 79.5114544,126.768135 L79.5114544,255.999156 L128,255.999156 C198.691671,255.999156 256,198.692515 256,128.000844 C256,57.3083291 198.691671,0 128,0 L128,0 Z" fill="#368FB8"></path>
    </g>
</svg>
